X: 636
T:Miss McGuinness
M:4/4
L:1/8
S:Matt Molloy
R:Reel
N:Posted to the woodenflute mailing list March 2003
Z:Andrew Pickering
K:G
dGG2 BG (3Bcd|g3a bage|dGG2 BG (3Bcd|egdB BAA2:||
a2af g3f|egdg egd2|a2af g3f|edgB BAA2|
a2af g3f|egdg egdg|b2bg a2ag|edef g3e||
<end>
<start>
